dist/img/svg/icon-ok.svg

<svg width="9" height="14" viewBox="0 0 9 14" fill="none" xmlns="http://www.w3.org/2000/svg">
<path d="M3.76222 9.861C2.60029 9.7478 1.55264 9.48051 0.655689 8.82524C0.544394 8.74371 0.429488 8.66512 0.327926 8.57407C-0.0646686 8.22187 -0.104226 7.81851 0.206427 7.40282C0.472185 7.04711 0.918308 6.95195 1.38201 7.1562C1.4718 7.19579 1.55735 7.2452 1.63929 7.29828C3.31092 8.37114 5.6073 8.40076 7.28521 7.34652C7.45144 7.22746 7.62914 7.13039 7.83509 7.08083C8.23553 6.98479 8.60898 7.12218 8.82388 7.44945C9.06938 7.8232 9.06625 8.188 8.76375 8.47818C8.29974 8.92304 7.74169 9.24488 7.12164 9.46951C6.53534 9.68182 5.89316 9.78871 5.25756 9.85968C5.35348 9.95719 5.39868 10.0051 5.45865 10.0614C6.3217 10.8714 7.18851 11.678 8.04873 12.4904C8.34181 12.7673 8.40303 13.1105 8.24166 13.4325C8.06522 13.7844 7.67027 14.0159 7.28301 13.9911C7.03766 13.9753 6.84631 13.8612 6.6763 13.7013C6.02501 13.0891 5.36148 12.4882 4.72338 11.8645C4.53768 11.6831 4.44836 11.7174 4.28448 11.8749C3.62926 12.5049 2.96338 13.1253 2.29356 13.7422C1.9928 14.0192 1.6349 14.069 1.2861 13.9108C0.915325 13.7429 0.679392 13.3894 0.697601 13.0341C0.710159 12.7938 0.836681 12.6102 1.01328 12.4456C1.86738 11.6489 2.71912 10.8503 3.57118 10.0523C3.62754 9.99927 3.68012 9.94296 3.76222 9.861Z" fill="#E77D08"/>
<path d="M4.47003 7.08628C2.39718 7.07968 0.697456 5.47457 0.709544 3.5353C0.721474 1.57462 2.4223 -0.00541121 4.51556 1.39289e-05C6.61305 0.00529245 8.29661 1.60806 8.28609 3.58911C8.27542 5.52442 6.56392 7.09302 4.47003 7.08628ZM6.35389 3.53999C6.35028 2.5771 5.5293 1.81055 4.50049 1.80967C3.46304 1.80864 2.63468 2.58913 2.64269 3.56081C2.65038 4.52004 3.47842 5.28117 4.51006 5.27765C5.53856 5.27428 6.35734 4.50274 6.35389 3.53999Z" fill="#E77D08"/>
</svg>

<svg width="9" height="14" viewBox="0 0 9 14" fill="none" xmlns="http://www.w3.org/2000/svg"><path d="M3.762 9.861C2.6 9.748 1.552 9.481.656 8.825c-.112-.081-.227-.16-.328-.25-.393-.353-.432-.756-.122-1.172.266-.356.712-.451 1.176-.247.09.04.175.09.257.142 1.672 1.073 3.968 1.103 5.646.049.166-.12.344-.217.55-.266.4-.096.774.041.989.368.245.374.242.739-.06 1.03a4.606 4.606 0 01-1.642.99c-.587.213-1.229.32-1.864.39.095.098.14.146.2.202.864.81 1.73 1.617 2.59 2.43.294.276.355.62.194.941a1.032 1.032 0 01-.959.56c-.245-.017-.437-.13-.607-.29-.651-.613-1.315-1.214-1.953-1.838-.185-.18-.275-.147-.439.01-.655.63-1.32 1.251-1.99 1.868-.301.277-.66.327-1.008.169-.37-.168-.607-.522-.588-.877.012-.24.139-.424.315-.588.854-.797 1.706-1.596 2.558-2.394.057-.053.11-.109.191-.191z" fill="#E77D08"/><path d="M4.47 7.086C2.397 7.08.697 5.475.71 3.536.72 1.574 2.422-.006 4.516 0c2.097.005 3.78 1.608 3.77 3.59-.01 1.934-1.722 3.503-3.816 3.496zM6.354 3.54C6.35 2.577 5.529 1.81 4.5 1.81c-1.037-.001-1.865.78-1.857 1.75.007.96.835 1.721 1.867 1.718 1.029-.004 1.847-.775 1.844-1.738z" fill="#E77D08"/></svg>
